X:706
T:Andy Rennick's Ferret
C:Joe Buchanan's Scottish Tome - Page 227.0
I:227 0
Z:Carl Allison
R:Reel
L:1/8
M:C
K:C
AB | cA ((3AAA) ABd | eagg age | gd ((3ddd) egdg | ^cdgd egdB |
cA ((3AAA) ABd | eagg age | gd ((3ddd) egdg | dBgB A2 :|
Bd | eaag agef | eaag agef | gd ((3ddd) egdg | ^cdgd egdg |
eaa ageg | aaag agef | gd ((3ddd) efge | dBgB A2 :|
AB | cA ((3AAA) ((3AAA) cA | ((3AAA) cA agef | gd ((3ddd) ^cdcd | ((3ddd) ^cdcd ((3ddd) |
cA ((3AAA) ((3AAA) cA | ((3AAA) cA agef | gd ((3ddd) efge | dBgB A2 :|
Bd | eaag ageg | aaag agef | gd ((3ddd) ^cdcd | ((3ddd) ^cdcd ((3ddd) |
eag ageg | ((3aaa) ag agef | gd ((3ddd) efge | dBgB A2 Bd |
eaag agef | aaag agef | gd ((3ddd) ^cdcd | ((3ddd) ^cdcd ((3ddd) |
cA ((3AAA) ((3AAA) cA | AA agef | gd ((3ddd) efge | dBgB A2 |]
